lib/svg/comment.svg

<svg xmlns="http://www.w3.org/2000/svg" width="16" height="16" viewBox="0 0 16 16"><path d="M14 1H2c-.55 0-1 .45-1 1v8c0 .55.45 1 1 1h2v3.5L7.5 11H14c.55 0 1-.45 1-1V2c0-.55-.45-1-1-1zm0 9H7l-2 2v-2H2V2h12v8z"/></svg>

<?xml version="1.0" encoding="UTF-8" standalone="no"?>
<svg width="16px" height="16px" viewBox="0 0 16 16" version="1.1" xmlns="http://www.w3.org/2000/svg" xmlns:xlink="http://www.w3.org/1999/xlink">
    <!-- Generator: Sketch 3.8.3 (29802) - http://www.bohemiancoding.com/sketch -->
    <title>comment</title>
    <desc>Created with Sketch.</desc>
    <defs></defs>
    <g id="Octicons" stroke="none" stroke-width="1" fill="none" fill-rule="evenodd">
        <g id="comment" fill="#000000">
            <path d="M14,1 L2,1 C1.45,1 1,1.45 1,2 L1,10 C1,10.55 1.45,11 2,11 L4,11 L4,14.5 L7.5,11 L14,11 C14.55,11 15,10.55 15,10 L15,2 C15,1.45 14.55,1 14,1 L14,1 Z M14,10 L7,10 L5,12 L5,10 L2,10 L2,2 L14,2 L14,10 L14,10 Z" id="Shape"></path>
        </g>
    </g>
</svg>
